select-compare.svg

<svg fill="currentColor" viewBox="0 0 24 24"><path d="M13 23h-2V1h2zm-4-4H5V5h4V3H5c-1.11 0-2 .89-2 2v14a2 2 0 0 0 2 2h4zM19 7v2h2V7zm0-2h2a2 2 0 0 0-2-2zm2 10h-2v2h2zm-2-4v2h2v-2zm-2-8h-2v2h2zm2 18c1.11 0 2-.89 2-2h-2zm-2-2h-2v2h2z"/></svg>

<svg  viewBox="0 0 24 24" fill="currentColor"><path  d="M13,23H11V1H13V23M9,19H5V5H9V3H5C3.89,3 3,3.89 3,5V19C3,20.11 3.9,21 5,21H9V19M19,7V9H21V7H19M19,5H21C21,3.89 20.1,3 19,3V5M21,15H19V17H21V15M19,11V13H21V11H19M17,3H15V5H17V3M19,21C20.11,21 21,20.11 21,19H19V21M17,19H15V21H17V19Z"/></svg>
